X:71
T:Trip to Fleetville
C:Barry Goodman
S:http://lesters-tune-a-day.blogspot.co.uk/2017/03/tune-471-trip-to-fleetville.html 2017-3-24
N:Lester gives B1 as the 2nd part in the ABC, but he plays B2.
K:G
L:1/8
M:4/4
"A"\
|:   g2 d2 ed ce | d2 B2 cB Ac |\
[1,3 B2 G2 GA B2 | c2 B2 A4 :|\
[2,4 B2 G2 GA BG | A2 F2 G4 :| 
"B1"\
|:   EF GF E2 G2 | FG AG F2 A2 |\
[1,3 GA BA G2 B2 | c2 B2 A4 :|\
[2,4 GA BA G2 B2 | A2 F2 G4 :| 
% Lester's 2nd part:
"B2"\
|:   E2 EF G2 EG | F2 FG A2 F2 |\
[1,3 G2 GA B2 GB | c2 B2 A4 :|\
[2,4 G2 GA B2 G2 | A2 F2 G4 :| 
